X: 22873
T: Lark On The Strand, The
R: jig
M: 6/8
K: Adorian
|:A3 AGA|BGE G3|GBA GBd|e2d edB|
A3 AGA|BGE G3|GBA GAB|dBG BdB:|
GBd g3|gba g3|GBd e2d|e2d edB|
GBd g3|gba g3|a2a a2d|e2d edB:|

